remix/Logos/line-fill.svg

<svg viewBox="0 0 24 24" fill="currentColor" xmlns="http://www.w3.org/2000/svg"><path d="M18.6635 10.8404C18.6635 11.1279 18.4293 11.3654 18.1385 11.3654H16.676V12.3029H18.1385C18.4293 12.3029 18.6635 12.5387 18.6635 12.8279C18.6635 13.1145 18.4293 13.352 18.1385 13.352H16.1501C15.8626 13.352 15.6276 13.1145 15.6276 12.8279V8.85202C15.6276 8.56452 15.8626 8.32702 16.1526 8.32702H18.141C18.4293 8.32702 18.6635 8.56452 18.6635 8.85202C18.6635 9.14286 18.4293 9.37702 18.1385 9.37702H16.676V10.3145H18.1385C18.4293 10.3145 18.6635 10.552 18.6635 10.8404ZM14.566 13.3245C14.5126 13.342 14.4551 13.3504 14.4001 13.3504C14.2243 13.3504 14.0743 13.2754 13.9751 13.142L11.9393 10.3779V12.8279C11.9393 13.1145 11.7068 13.352 11.4135 13.352C11.1251 13.352 10.8918 13.1145 10.8918 12.8279V8.85202C10.8918 8.62702 11.036 8.42702 11.2501 8.35619C11.3001 8.33702 11.3635 8.32869 11.4118 8.32869C11.5743 8.32869 11.7243 8.41536 11.8243 8.54036L13.876 11.3154V8.85202C13.876 8.56452 14.111 8.32702 14.401 8.32702C14.6885 8.32702 14.926 8.56452 14.926 8.85202V12.8279C14.926 13.0529 14.781 13.2529 14.566 13.3245ZM9.61598 13.352C9.32848 13.352 9.09348 13.1145 9.09348 12.8279V8.85202C9.09348 8.56452 9.32848 8.32702 9.61848 8.32702C9.90681 8.32702 10.1418 8.56452 10.1418 8.85202V12.8279C10.1418 13.1145 9.90681 13.352 9.61598 13.352ZM8.08681 13.352H6.09848C5.81098 13.352 5.57348 13.1145 5.57348 12.8279V8.85202C5.57348 8.56452 5.81098 8.32702 6.09848 8.32702C6.38848 8.32702 6.62348 8.56452 6.62348 8.85202V12.3029H8.08681C8.37681 12.3029 8.61098 12.5387 8.61098 12.8279C8.61098 13.1145 8.37598 13.352 8.08681 13.352ZM12.001 2.57202C6.48848 2.57202 2.00098 6.21452 2.00098 10.6904C2.00098 14.6995 5.55931 18.0587 10.3635 18.697C10.6893 18.7654 11.1326 18.912 11.2451 19.1887C11.3451 19.4395 11.311 19.827 11.2768 20.0887L11.1401 20.9387C11.1026 21.1895 10.9401 21.927 12.0143 21.4762C13.0901 21.027 17.7776 18.0779 19.8776 15.6637C21.3143 14.0895 22.001 12.477 22.001 10.6904C22.001 6.21452 17.5135 2.57202 12.001 2.57202Z"/></svg>

<svg viewBox="0 0 24 24" xmlns="http://www.w3.org/2000/svg"><path fill="none" d="M0 0h24v24H0Z"/><path d="M18.663 10.84v0c-.01.29-.24.52-.53.52h-1.47v.93h1.46v0c.28-.02.53.21.54.5 .01.28-.22.53-.51.54 -.02 0-.04 0-.05 0h-1.99v0c-.29-.01-.53-.24-.53-.53V8.82c0-.29.23-.53.52-.53h1.98 0c.28 0 .52.23.52.52 -.01.28-.24.52-.53.52h-1.47v.93h1.46c.29 0 .52.23.52.52Zm-4.1 2.48v0c-.06.01-.11.02-.17.02l0-.001c-.17 0-.33-.08-.43-.21l-2.04-2.77v2.45 -.001c-.03.28-.28.5-.57.48 -.26-.02-.47-.23-.49-.49V8.81 8.81c-.01-.29.23-.53.52-.53 .16 0 .31.08.41.21l2.05 2.77V8.79c0-.29.23-.53.52-.53 .28 0 .52.23.52.52v3.97h0c-.01.22-.15.42-.36.49Zm-4.95.02h-.001c-.29-.01-.53-.24-.53-.53V8.83c0-.29.23-.53.52-.53 .28 0 .52.23.52.52v3.97 0c-.01.28-.24.52-.53.52Zm-1.53 0h-1.99l0 0c-.29-.01-.53-.24-.53-.53V8.83H5.56c.02-.29.28-.51.57-.48 .25.02.45.22.47.47v3.45h1.46v0c.28 0 .52.23.52.52 0 .28-.24.52-.53.52Zm3.91-10.78c-5.513 0-10 3.64-10 8.11 0 4.01 3.558 7.369 8.36 8 .32.06.76.21.88.49 .1.25.06.63.03.9l-.14.85c-.04.25-.2.98.87.53 1.07-.45 5.76-3.4 7.86-5.82 1.436-1.58 2.12-3.19 2.12-4.98 0-4.48-4.49-8.12-10-8.12Z"/></svg>
